!! 00046] TT[KA
!! NN
!!!OTL: Guan deng
!!!ARE: Asia, China, Shanxi, Yanbei
!! Ethnic Group: Han
!! I, 327, 1)
!!!SCT: C0091
!!!YEM: Copyright 1995, estate of Helmut Schaffrath.
**kern
*ICvox
*Ivox
*M2/4
*k[f#]
*G:
{8ee
16ee
16ee
8ee
8b
=1
8dd
4dd
8gg
=2
16ee
16gg
16ee
16dd
8b
8e
=3
8g
4g
8e}
=4
{8.g
16a
8dd
8b
=5
8a
16b
16dd
8a
8g
=6
8a
16a
16b
8a
8d
=7
8e
8e
16f#
16a
16f#
16e
=8
8d
4.d}
=9
{8.g
16a
8dd
8b
=10
8a
16b
16dd
8a
8g
=11
8a
16a
16b
8a
8d
=12
8e
8e
16f#
16a
16f#
16e
=13
8d
4.d}
==
!!!AGN: Xiaodiao. Yuanxiao guandeng
!! Alterationen! 4, fa) klingt ein wenig hoeher als in der temperierten
!!    Stimmung. Dies ist typisch fuer diese Region.
!!    In der 4. Strophe lautet der letzte Takt: 5_5__. //
!!!ONB: ESAC (Essen Associative Code) Database: CHINA
!!!AMT: simple duple
!!!AIN: vox
!!!EED: Helmut Schaffrath
!!!EEV: 1.0
*-
